svg/core/breadboard/lm358_bread.svg

<?xml version="1.0" encoding="UTF-8" standalone="no"?>
<!-- Created with Inkscape (http://www.inkscape.org/) -->
<svg
   xmlns:svg="http://www.w3.org/2000/svg"
   xmlns="http://www.w3.org/2000/svg"
   version="1.0"
   width="0.40000001in"
   height="0.33000001in"
   viewBox="0 0 40 33"
   id="svg2"
   xml:space="preserve"><defs
   id="defs79" />

<rect
   width="3"
   height="4.3400002"
   x="3.5"
   y="28.66"
   id="connector0pin"
   style="fill:#8c8c8c" />
<rect
   width="3"
   height="4.3400002"
   x="13.5"
   y="28.66"
   id="connector1pin"
   style="fill:#8c8c8c" />
<rect
   width="3"
   height="4.3400002"
   x="23.5"
   y="28.66"
   id="connector2pin"
   style="fill:#8c8c8c" />
<rect
   width="3"
   height="4.3400002"
   x="33.5"
   y="28.66"
   id="connector3pin"
   style="fill:#8c8c8c" />
<rect
   width="3"
   height="4.3400002"
   x="33.5"
   y="0"
   id="connector4pin"
   style="fill:#8c8c8c" />
<rect
   width="3"
   height="4.3400002"
   x="23.5"
   y="0"
   id="connector5pin"
   style="fill:#8c8c8c" />
<rect
   width="3"
   height="4.3400002"
   x="13.5"
   y="0"
   id="connector6pin"
   style="fill:#8c8c8c" />
<rect
   width="3"
   height="4.3400002"
   x="3.5"
   y="0"
   id="connector7pin"
   style="fill:#8c8c8c" />
<rect
   width="3"
   height="3"
   x="3.5"
   y="30"
   id="connector0terminal"
   style="fill:#8c8c8c" />
<rect
   width="3"
   height="3"
   x="13.5"
   y="30"
   id="connector1terminal"
   style="fill:#8c8c8c" />
<rect
   width="3"
   height="3"
   x="23.5"
   y="30"
   id="connector2terminal"
   style="fill:#8c8c8c" />
<rect
   width="3"
   height="3"
   x="33.5"
   y="30"
   id="connector3terminal"
   style="fill:#8c8c8c" />
<rect
   width="3"
   height="3"
   x="33.5"
   y="0"
   id="connector4terminal"
   style="fill:#8c8c8c" />
<rect
   width="3"
   height="3"
   x="23.5"
   y="0"
   id="connector5terminal"
   style="fill:#8c8c8c" />
<rect
   width="3"
   height="3"
   x="13.5"
   y="0"
   id="connector6terminal"
   style="fill:#8c8c8c" />
<rect
   width="3"
   height="3"
   x="3.5"
   y="0"
   id="connector7terminal"
   style="fill:#8c8c8c" />
<g
   id="breadboard">
	<rect
   width="3"
   height="6.6799998"
   x="3.5"
   y="26.32"
   id="rect20"
   style="fill:#8c8c8c" />
	<rect
   width="3"
   height="6.6799998"
   x="13.5"
   y="26.32"
   id="rect22"
   style="fill:#8c8c8c" />
	<rect
   width="3"
   height="6.6799998"
   x="23.5"
   y="26.32"
   id="rect24"
   style="fill:#8c8c8c" />
	<rect
   width="3"
   height="6.6799998"
   x="33.5"
   y="26.32"
   id="rect26"
   style="fill:#8c8c8c" />
	<rect
   width="3"
   height="6.6799998"
   x="3.5"
   y="0"
   id="rect28"
   style="fill:#8c8c8c" />
	<rect
   width="3"
   height="6.6799998"
   x="13.5"
   y="0"
   id="rect30"
   style="fill:#8c8c8c" />
	<rect
   width="3"
   height="6.6799998"
   x="23.5"
   y="0"
   id="rect32"
   style="fill:#8c8c8c" />
	<rect
   width="3"
   height="6.6799998"
   x="33.5"
   y="0"
   id="rect34"
   style="fill:#8c8c8c" />
	<polygon
   points="0,3 40,3 39.25,11.5 0,11.5 0,3 "
   id="polygon36"
   style="fill:#3d3d3d" />
	<polygon
   points="0,21.5 39.25,21.5 40,30 0,30 0,21.5 "
   id="polygon38" />
	<polygon
   points="8.5,4.34 8.5,3.26 6.5,2.34 3.5,2.34 3.5,4.34 8.5,4.34 "
   id="polygon40"
   style="fill:#8c8c8c" />
	<polygon
   points="18.5,4.34 18.5,3.26 16.5,2.34 13.5,2.34 11.5,3.26 11.5,4.34 18.5,4.34 "
   id="polygon42"
   style="fill:#8c8c8c" />
	<polygon
   points="36.5,4.34 36.5,2.34 33.5,2.34 31.5,3.26 31.5,4.34 36.5,4.34 "
   id="polygon44"
   style="fill:#8c8c8c" />
	<polygon
   points="28.5,4.34 28.5,3.26 26.5,2.34 23.5,2.34 21.5,3.26 21.5,4.34 28.5,4.34 "
   id="polygon46"
   style="fill:#8c8c8c" />
	<polygon
   points="3.5,28.66 3.5,30.66 6.5,30.66 8.5,29.74 8.5,28.66 3.5,28.66 "
   id="polygon48"
   style="fill:#8c8c8c" />
	<polygon
   points="31.5,28.66 31.5,29.74 33.5,30.66 36.5,30.66 36.5,28.66 31.5,28.66 "
   id="polygon50"
   style="fill:#8c8c8c" />
	<polygon
   points="11.5,28.66 11.5,29.74 13.5,30.66 16.5,30.66 18.5,29.74 18.5,28.66 11.5,28.66 "
   id="polygon52"
   style="fill:#8c8c8c" />
	<polygon
   points="21.5,28.66 21.5,29.74 23.5,30.66 26.5,30.66 28.5,29.74 28.5,28.66 21.5,28.66 "
   id="polygon54"
   style="fill:#8c8c8c" />
	<polygon
   points="40,3 39.25,5.46 37.853,5.46 37.853,27.53 39.25,27.54 40,30 40,3 "
   id="polygon56"
   style="fill:#141414" />
	<polygon
   points="0,3 0.75,5.46 0.75,11.5 5,11.5 5,21.5 0.75,21.5 0.75,27.54 0,30 0,3 "
   id="polygon58"
   style="fill:#1f1f1f" />
	<polygon
   points="5,11.5 0.75,11.46 0.56,13.58 0.56,16.49 5,16.49 5,11.5 "
   id="polygon60"
   style="fill:#1c1c1c" />
	<polygon
   points="0.75,21.55 5,21.55 5,16.49 0.56,16.49 0.56,19.42 0.75,21.55 "
   id="polygon62"
   style="fill:#383838" />
	<path
   d="M 0.75,5.46 L 0.75,11.45 C 3.13,11.9 4.94,13.98 4.94,16.49 C 4.94,19 3.14,21.09 0.75,21.54 L 0.75,27.53 L 39.25,27.53 L 39.25,5.46 L 0.75,5.46 z"
   id="path64"
   style="fill:#303030" />
	<path
   d="M 0.56,13.58 L 0.56,19.41 C 2.03,19.24 3.18,18.01 3.18,16.49 C 3.18,14.97 2.04,13.75 0.56,13.58 z"
   id="path66"
   style="fill:#262626" />
	<circle
   cx="6.5"
   cy="23.469999"
   r="2.0599999"
   id="circle68"
   style="fill:#212121" /><path
   d="M 8.9525882,8.0229425 C 9.0059203,8.0229485 9.0539202,8.0282819 9.0965882,8.0389425 C 9.1712534,8.0602818 9.23792,8.0976151 9.2965882,8.1509425 C 9.3872532,8.2202817 9.4485865,8.3109483 9.4805882,8.4229425 C 9.4859198,8.4389481 9.4885864,8.4576148 9.4885882,8.4789425 C 9.4939198,8.5322814 9.4965864,9.3456139 9.4965882,10.918942 L 9.4965882,13.174942 L 10.672588,13.174942 C 11.541918,13.174943 11.997917,13.17761 12.040588,13.182942 C 12.051251,13.182943 12.059251,13.182943 12.064588,13.182942 C 12.192584,13.20961 12.296584,13.27361 12.376588,13.374942 C 12.461917,13.476276 12.504583,13.59361 12.504588,13.726942 C 12.504583,13.854943 12.461917,13.969609 12.376588,14.070942 C 12.296584,14.166942 12.192584,14.228276 12.064588,14.254942 C 12.053917,14.254942 12.045917,14.254942 12.040588,14.254942 C 11.987251,14.260276 11.403251,14.262942 10.288588,14.262942 L 8.4165882,14.262942 L 8.4165882,11.318942 C 8.4165875,11.196279 8.4165875,11.030946 8.4165882,10.822942 C 8.4165875,10.609613 8.4165875,10.462946 8.4165882,10.382942 C 8.4165875,9.1722807 8.4192542,8.5322814 8.4245882,8.4629425 C 8.4299208,8.4362815 8.4379208,8.4096148 8.4485882,8.3829425 L 8.4485882,8.3749425 C 8.4485875,8.3749482 8.4485875,8.3776149 8.4485882,8.3829425 C 8.4752541,8.3189483 8.5019208,8.2709483 8.5285882,8.2389425 C 8.5499207,8.217615 8.5659207,8.201615 8.5765882,8.1909425 C 8.619254,8.1482818 8.6565873,8.1162818 8.6885882,8.0949425 C 8.7099206,8.0842818 8.7312539,8.0736152 8.7525882,8.0629425 C 8.7845871,8.0522819 8.8192538,8.0442819 8.8565882,8.0389425 C 8.8832537,8.0282819 8.9152537,8.0229485 8.9525882,8.0229425 M 14.135338,10.966942 L 14.135338,8.0229425 L 15.335338,8.0229425 L 16.183338,9.2309425 L 17.023338,8.0229425 L 18.231338,8.0229425 L 18.231338,10.982942 C 18.231333,10.982946 18.228667,11.924278 18.223338,13.806942 C 18.223333,13.828276 18.220667,13.846943 18.215338,13.862942 C 18.167333,14.022943 18.071334,14.137609 17.927338,14.206942 C 17.847334,14.244276 17.767334,14.262942 17.687338,14.262942 C 17.623334,14.262942 17.562001,14.252276 17.503338,14.230942 C 17.476668,14.220276 17.455334,14.209609 17.439338,14.198942 C 17.418001,14.188276 17.396668,14.174942 17.375338,14.158942 C 17.359334,14.148276 17.340668,14.132276 17.319338,14.110942 C 17.244668,14.041609 17.191334,13.956276 17.159338,13.854942 C 17.154001,13.838943 17.151334,13.820276 17.151338,13.798942 C 17.146001,13.745609 17.143335,12.982944 17.143338,11.510942 L 17.143338,9.7509425 L 16.719338,10.350942 L 16.719338,10.414942 C 16.719335,10.521613 16.714002,10.593613 16.703338,10.630942 C 16.698002,10.657613 16.690002,10.684279 16.679338,10.710942 C 16.668668,10.732279 16.658002,10.753612 16.647338,10.774942 C 16.604668,10.844279 16.546002,10.902946 16.471338,10.950942 C 16.386002,11.009612 16.287335,11.038946 16.175338,11.038942 C 16.154002,11.038946 16.132669,11.038946 16.111338,11.038942 C 16.036669,11.028279 15.967336,11.004279 15.903338,10.966942 C 15.791336,10.902946 15.714003,10.814946 15.671338,10.702942 C 15.655336,10.649613 15.644669,10.604279 15.639338,10.566942 C 15.639336,10.545613 15.639336,10.500279 15.639338,10.430942 L 15.631338,10.350942 L 15.223338,9.7589425 L 15.215338,11.518942 C 15.215336,13.00161 15.21267,13.764276 15.207338,13.806942 C 15.207336,13.828276 15.20467,13.846943 15.199338,13.862942 C 15.151336,14.022943 15.055337,14.137609 14.911338,14.206942 C 14.83667,14.244276 14.759337,14.262942 14.679338,14.262942 C 14.610004,14.262942 14.54867,14.252276 14.495338,14.230942 C 14.431337,14.204276 14.380671,14.177609 14.343338,14.150942 C 14.327337,14.134942 14.311337,14.118942 14.295338,14.102942 C 14.274004,14.076276 14.258004,14.057609 14.247338,14.046942 C 14.215337,14.009609 14.188671,13.964276 14.167338,13.910942 C 14.156671,13.884276 14.148671,13.854943 14.143338,13.822942 C 14.138004,13.753609 14.135338,13.11361 14.135338,11.902942 C 14.135338,11.822945 14.135338,11.678945 14.135338,11.470942 C 14.135338,11.262945 14.135338,11.094945 14.135338,10.966942 M 15.999338,18.022942 C 16.074002,18.022949 16.175335,18.022949 16.303338,18.022942 C 16.431335,18.022949 16.524668,18.022949 16.583338,18.022942 C 17.111335,18.022949 17.402001,18.028282 17.455338,18.038942 C 17.466001,18.038949 17.476668,18.041615 17.487338,18.046942 C 17.492667,18.046949 17.508667,18.049615 17.535338,18.054942 C 17.716667,18.102948 17.868667,18.196282 17.991338,18.334942 C 18.119334,18.473615 18.196667,18.638948 18.223338,18.830942 C 18.228667,18.873614 18.231333,19.150947 18.231338,19.662942 C 18.231333,20.18028 18.228667,20.465613 18.223338,20.518942 C 18.196667,20.748279 18.116667,20.956279 17.983338,21.142942 C 18.052667,21.244279 18.108667,21.350945 18.151338,21.462942 C 18.178,21.532278 18.199333,21.612278 18.215338,21.702942 L 18.231338,21.782942 L 18.231338,23.446942 L 18.215338,23.518942 C 18.178,23.67361 18.114,23.806943 18.023338,23.918942 C 17.863334,24.116276 17.658001,24.228276 17.407338,24.254942 C 17.375334,24.260276 17.098001,24.262942 16.575338,24.262942 C 16.415335,24.262942 16.215335,24.262942 15.975338,24.262942 L 14.583338,24.262942 L 14.527338,24.238942 C 14.388671,24.196276 14.287337,24.126942 14.223338,24.030942 C 14.164671,23.929609 14.135338,23.828276 14.135338,23.726942 C 14.135338,23.620276 14.164671,23.516276 14.223338,23.414942 C 14.287337,23.31361 14.388671,23.24161 14.527338,23.198942 L 14.583338,23.182942 L 17.143338,23.174942 L 17.143338,22.590942 C 17.143335,22.105611 17.140668,21.854945 17.135338,21.838942 L 17.119338,21.814942 C 17.098001,21.766945 17.063335,21.732278 17.015338,21.710942 L 16.991338,21.694942 C 16.959335,21.689612 16.687335,21.686945 16.175338,21.686942 C 15.636669,21.681612 15.343336,21.676278 15.295338,21.670942 C 15.26867,21.665612 15.242003,21.654945 15.215338,21.638942 C 15.210003,21.638945 15.20467,21.638945 15.199338,21.638942 C 15.194003,21.633612 15.191336,21.630945 15.191338,21.630942 C 15.047337,21.561612 14.951337,21.449612 14.903338,21.294942 C 14.89267,21.257612 14.887337,21.220279 14.887338,21.182942 C 14.887337,21.166945 14.887337,21.153612 14.887338,21.142942 C 14.887337,21.084279 14.890003,21.044279 14.895338,21.022942 C 14.90067,21.012279 14.903337,21.001612 14.903338,20.990942 C 14.951337,20.836279 15.047337,20.724279 15.191338,20.654942 L 15.215338,20.646942 C 15.242003,20.630946 15.26867,20.620279 15.295338,20.614942 C 15.343336,20.604279 15.636669,20.598946 16.175338,20.598942 L 16.959338,20.598942 L 16.975338,20.590942 C 17.055335,20.564279 17.108668,20.510946 17.135338,20.430942 C 17.140668,20.404279 17.143335,20.158946 17.143338,19.694942 L 17.143338,19.110942 L 14.583338,19.110942 L 14.527338,19.086942 C 14.362004,19.038948 14.247337,18.940281 14.183338,18.790942 C 14.151337,18.721615 14.135338,18.646948 14.135338,18.566942 C 14.135338,18.486948 14.151337,18.412281 14.183338,18.342942 C 14.258004,18.166948 14.394004,18.062949 14.591338,18.030942 C 14.61267,18.025615 15.082003,18.022949 15.999338,18.022942 M 20.606088,21.686942 L 20.606088,18.022942 L 22.102088,18.022942 C 22.976751,18.022949 23.435417,18.025615 23.478088,18.030942 C 23.488751,18.030949 23.496751,18.030949 23.502088,18.030942 C 23.630084,18.057615 23.734084,18.121615 23.814088,18.222942 C 23.899417,18.324282 23.942083,18.441615 23.942088,18.574942 C 23.942083,18.702948 23.899417,18.817614 23.814088,18.918942 C 23.734084,19.014948 23.630084,19.076281 23.502088,19.102942 C 23.470084,19.108281 23.131418,19.110947 22.486088,19.110942 L 21.686088,19.110942 L 21.686088,20.598942 L 22.302088,20.598942 L 22.358088,20.598942 C 22.875418,20.598946 23.174084,20.609613 23.254088,20.630942 C 23.440751,20.678946 23.595417,20.774946 23.718088,20.918942 C 23.846084,21.062946 23.92075,21.230945 23.942088,21.422942 C 23.947417,21.454945 23.950083,21.646945 23.950088,21.998942 C 23.950083,22.126944 23.950083,22.281611 23.950088,22.462942 L 23.950088,23.454942 L 23.934088,23.518942 C 23.89675,23.67361 23.83275,23.806943 23.742088,23.918942 C 23.60875,24.078942 23.446084,24.182942 23.254088,24.230942 C 23.174084,24.252276 22.846085,24.262942 22.270088,24.262942 L 22.158088,24.262942 C 21.534086,24.262942 21.19542,24.260276 21.142088,24.254942 C 21.05142,24.244276 20.968753,24.225609 20.894088,24.198942 C 20.872753,24.188276 20.744753,24.134942 20.510088,24.038942 C 20.280754,23.942943 20.147421,23.884276 20.110088,23.862942 C 20.019421,23.809609 19.950087,23.72961 19.902088,23.622942 C 19.870087,23.55361 19.854088,23.478943 19.854088,23.398942 C 19.854088,23.31361 19.872754,23.23361 19.910088,23.158942 C 19.952754,23.062944 20.016754,22.988277 20.102088,22.934942 C 20.192754,22.88161 20.288754,22.854944 20.390088,22.854942 C 20.448754,22.854944 20.504754,22.86561 20.558088,22.886942 C 20.584753,22.892277 20.70742,22.940277 20.926088,23.030942 C 21.134086,23.12161 21.238086,23.166943 21.238088,23.166942 C 21.264753,23.172277 21.560752,23.174943 22.126088,23.174942 L 22.862088,23.174942 L 22.862088,21.686942 L 20.606088,21.686942 M 27.308838,18.022942 C 27.362169,18.022949 27.468836,18.022949 27.628838,18.022942 C 28.162168,18.028282 28.452835,18.033615 28.500838,18.038942 C 28.527501,18.044282 28.554168,18.054949 28.580838,18.070942 C 28.586168,18.070948 28.591501,18.073615 28.596838,18.078942 C 28.602168,18.078948 28.604834,18.078948 28.604838,18.078942 C 28.716834,18.132282 28.799501,18.214948 28.852838,18.326942 L 28.860838,18.342942 C 28.876834,18.369615 28.887501,18.401615 28.892838,18.438942 C 28.903501,18.486948 28.908834,18.884281 28.908838,19.630942 L 28.908838,20.614942 C 28.930167,20.620279 28.951501,20.625613 28.972838,20.630942 C 29.138167,20.673613 29.282167,20.756279 29.404838,20.878942 C 29.5275,21.001612 29.6075,21.148279 29.644838,21.318942 C 29.660833,21.388279 29.668833,21.588278 29.668838,21.918942 C 29.668833,22.009611 29.668833,22.190944 29.668838,22.462942 L 29.668838,23.454942 L 29.652838,23.518942 C 29.6155,23.67361 29.5515,23.806943 29.460838,23.918942 C 29.300834,24.116276 29.095501,24.228276 28.844838,24.254942 C 28.812834,24.260276 28.583501,24.262942 28.156838,24.262942 C 28.002168,24.262942 27.812835,24.262942 27.588838,24.262942 L 26.380838,24.262942 L 26.316838,24.246942 C 26.092837,24.193609 25.914171,24.084276 25.780838,23.918942 C 25.695504,23.817609 25.634171,23.700276 25.596838,23.566942 C 25.580838,23.492276 25.572838,23.158943 25.572838,22.566942 L 25.572838,22.430942 L 25.572838,22.294942 C 25.572838,21.702945 25.580838,21.369612 25.596838,21.294942 C 25.644837,21.124279 25.732837,20.977612 25.860838,20.854942 C 25.99417,20.726946 26.148837,20.646946 26.324838,20.614942 L 26.324838,19.646942 L 26.324838,19.358942 C 26.324837,18.788281 26.33017,18.478948 26.340838,18.430942 C 26.340837,18.425615 26.340837,18.420281 26.340838,18.414942 C 26.34617,18.404281 26.351503,18.393615 26.356838,18.382942 C 26.383503,18.318948 26.41017,18.270948 26.436838,18.238942 C 26.452837,18.217615 26.468837,18.201615 26.484838,18.190942 C 26.532837,18.148282 26.57017,18.116282 26.596838,18.094942 C 26.61817,18.084282 26.639503,18.073615 26.660838,18.062942 C 26.692836,18.052282 26.727503,18.044282 26.764838,18.038942 C 26.791503,18.028282 26.972836,18.022949 27.308838,18.022942 M 27.828838,20.598942 L 27.828838,19.110942 L 27.404838,19.110942 L 27.404838,20.598942 L 27.828838,20.598942 M 28.580838,23.174942 L 28.580838,21.686942 L 26.652838,21.686942 L 26.652838,23.174942 L 28.580838,23.174942"
   id="text2460"
   style="font-size:8px;font-style:normal;font-variant:normal;font-weight:bold;font-stretch:normal;fill:#e3dbdb;fill-opacity:1;stroke:none;stroke-width:1px;stroke-linecap:butt;stroke-linejoin:miter;stroke-opacity:1;font-family:OCRA" />
	
</g>
</svg>

<?xml version="1.0" encoding="UTF-8"?>
<!-- Created with Inkscape (http://www.inkscape.org/) -->
<svg width=".4in" height=".33in" version="1.0" viewBox="0 0 40 33" xmlns="http://www.w3.org/2000/svg">
 <g fill="#8c8c8c">
  <rect id="connector0pin" x="3.5" y="28.66" width="3" height="4.34"/>
  <rect id="connector1pin" x="13.5" y="28.66" width="3" height="4.34"/>
  <rect id="connector2pin" x="23.5" y="28.66" width="3" height="4.34"/>
  <rect id="connector3pin" x="33.5" y="28.66" width="3" height="4.34"/>
  <rect id="connector4pin" x="33.5" width="3" height="4.34"/>
  <rect id="connector5pin" x="23.5" width="3" height="4.34"/>
  <rect id="connector6pin" x="13.5" width="3" height="4.34"/>
  <rect id="connector7pin" x="3.5" width="3" height="4.34"/>
  <rect id="connector0terminal" x="3.5" y="30" width="3" height="3"/>
  <rect id="connector1terminal" x="13.5" y="30" width="3" height="3"/>
  <rect id="connector2terminal" x="23.5" y="30" width="3" height="3"/>
  <rect id="connector3terminal" x="33.5" y="30" width="3" height="3"/>
  <rect id="connector4terminal" x="33.5" width="3" height="3"/>
  <rect id="connector5terminal" x="23.5" width="3" height="3"/>
  <rect id="connector6terminal" x="13.5" width="3" height="3"/>
  <rect id="connector7terminal" x="3.5" width="3" height="3"/>
 </g>
 <g id="breadboard">
  <g fill="#8c8c8c">
   <rect x="3.5" y="26.32" width="3" height="6.68"/>
   <rect x="13.5" y="26.32" width="3" height="6.68"/>
   <rect x="23.5" y="26.32" width="3" height="6.68"/>
   <rect x="33.5" y="26.32" width="3" height="6.68"/>
   <rect x="3.5" width="3" height="6.68"/>
   <rect x="13.5" width="3" height="6.68"/>
   <rect x="23.5" width="3" height="6.68"/>
   <rect x="33.5" width="3" height="6.68"/>
  </g>
  <polygon points="0 3 40 3 39.25 11.5 0 11.5" fill="#3d3d3d"/>
  <polygon points="0 21.5 39.25 21.5 40 30 0 30"/>
  <g fill="#8c8c8c">
   <polygon points="8.5 4.34 8.5 3.26 6.5 2.34 3.5 2.34 3.5 4.34"/>
   <polygon points="18.5 4.34 18.5 3.26 16.5 2.34 13.5 2.34 11.5 3.26 11.5 4.34"/>
   <polygon points="36.5 4.34 36.5 2.34 33.5 2.34 31.5 3.26 31.5 4.34"/>
   <polygon points="28.5 4.34 28.5 3.26 26.5 2.34 23.5 2.34 21.5 3.26 21.5 4.34"/>
   <polygon points="3.5 28.66 3.5 30.66 6.5 30.66 8.5 29.74 8.5 28.66"/>
   <polygon points="31.5 28.66 31.5 29.74 33.5 30.66 36.5 30.66 36.5 28.66"/>
   <polygon points="11.5 28.66 11.5 29.74 13.5 30.66 16.5 30.66 18.5 29.74 18.5 28.66"/>
   <polygon points="21.5 28.66 21.5 29.74 23.5 30.66 26.5 30.66 28.5 29.74 28.5 28.66"/>
  </g>
  <polygon points="40 3 39.25 5.46 37.853 5.46 37.853 27.53 39.25 27.54 40 30" fill="#141414"/>
  <polygon points="0 3 0.75 5.46 0.75 11.5 5 11.5 5 21.5 0.75 21.5 0.75 27.54 0 30" fill="#1f1f1f"/>
  <polygon points="5 11.5 0.75 11.46 0.56 13.58 0.56 16.49 5 16.49" fill="#1c1c1c"/>
  <polygon points="0.75 21.55 5 21.55 5 16.49 0.56 16.49 0.56 19.42" fill="#383838"/>
  <path d="m0.75 5.46v5.99c2.38 0.45 4.19 2.53 4.19 5.04s-1.8 4.6-4.19 5.05v5.99h38.5v-22.07h-38.5z" fill="#303030"/>
  <path d="m0.56 13.58v5.83c1.47-0.17 2.62-1.4 2.62-2.92s-1.14-2.74-2.62-2.91z" fill="#262626"/>
  <circle cx="6.5" cy="23.47" r="2.06" fill="#212121"/>
  <text x="6" y="18" fill="#e3dbdb" font-family="'OCRA'" font-size="9">LM358</text>
  
 </g>
</svg>
